X: 20732
M: 3/4
L: 1/8
K: G
|:\
(AD)(cD)(BD) | (AD)(cD)(BD) | (BA)(cB)(AG) | (GF)(AF)(ED) |\
(AD)(cD)(BD) | (AD)(cD)(BD) | (E>A)(G2F2) | G6 ::\
(dD)(^cD)(BD) | (AD)(GD)(FD) | (dD)(^cD)(BD) | (AD)(GD)(FD) |
(AD)(cD)(BD) | (AD)(cD)(BD) | E>AG2F2 | G6 :|


